; generated by PrusaSlicer 2.7.4+win64 on 2024-04-17 at 14:36:33 UTC

; 

; external perimeters extrusion width = 0.42mm
; perimeters extrusion width = 0.44mm
; infill extrusion width = 0.44mm
; solid infill extrusion width = 0.44mm
; top infill extrusion width = 0.40mm
; first layer extrusion width = 0.42mm

M201 X500 Y500 Z100 E5000 ; sets maximum accelerations, mm/sec^2
M203 X500 Y500 Z10 E60 ; sets maximum feedrates, mm / sec
M204 S500 T1000 ; sets acceleration (S) and retract acceleration (R), mm/sec^2
M205 X8.00 Y8.00 Z0.40 E5.00 ; sets the jerk limits, mm/sec
M205 S0 T0 ; sets the minimum extruding and travel feed rate, mm/sec

; printing object PropulsionModuleChassis.stl id:0 copy 0
; stop printing object PropulsionModuleChassis.stl id:0 copy 0

;TYPE:Custom
G90 ; use absolute coordinates
M83 ; extruder relative mode
M104 S150 ; set temporary nozzle temp to prevent oozing during homing
M140 S60 ; set final bed temp
G4 S30 ; allow partial nozzle warmup
G28 ; home all axis
G1 Z50 F240
G1 X2.0 Y10 F3000
M104 S230 ; set final nozzle temp
M190 S60 ; wait for bed temp to stabilize
M109 S230 ; wait for nozzle temp to stabilize
G1 Z0.28 F240
G92 E0
G1 X2.0 Y140 E10 F1500 ; prime the nozzle
G1 X2.3 Y140 F5000
G92 E0
G1 X2.3 Y10 E10 F1200 ; prime the nozzle
G92 E0
G21 ; set units to millimeters
G90 ; use absolute coordinates
M83 ; use relative distances for extrusion
; Filament gcode
M107
;LAYER_CHANGE
;Z:0.2
;HEIGHT:0.2
G1 E-5 F3600
G1 Z.2 F9000
G1 X83.812 Y75.912
G1 Z.2
G1 E5 F2400
M204 S500
;TYPE:Skirt/Brim
;WIDTH:0.42
G1 F1200
G1 X84.106 Y75.618 E.01304
G1 X85.504 Y74.777 E.05115
G1 X86.494 Y74.629 E.03139
G1 X155 Y74.623 E2.14796
G1 X156.583 Y75.017 E.05115
G1 X157.797 Y76.107 E.05116
G1 X158.377 Y78 E.06208
G1 X158.377 Y153 E2.35157
G1 X157.983 Y154.583 E.05115
G1 X156.893 Y155.797 E.05116
G1 X155 Y156.377 E.06208
G1 X86.5 Y156.377 E2.14777
G1 X84.917 Y155.983 E.05115
G1 X84.112 Y155.388 E.03139
G1 X83.812 Y155.088 E.0133
G1 X82.971 Y153.69 E.05115
G1 X82.823 Y152.7 E.03139
G1 X82.823 Y78.3 E2.33276
G1 X83.217 Y76.717 E.05115
G1 X83.776 Y75.96 E.02951
G1 E-3.5 F3600
;WIPE_START
G1 F7200
G1 X83.812 Y75.912 E-.0285
G1 X84.106 Y75.618 E-.19749
G1 X85.504 Y74.777 E-.77495
G1 X86.494 Y74.629 E-.47548
G1 X86.544 Y74.629 E-.02358
;WIPE_END
; printing object PropulsionModuleChassis.stl id:0 copy 0
G1 X87.464 Y79.064 F9000
G1 E5 F2400
;TYPE:Perimeter
;WIDTH:0.419999
G1 F1200
G1 X153.936 Y79.064 E2.08418
G1 X153.936 Y112.3 E1.04209
G1 X153.936 Y151.936 E1.24276
G1 X87.464 Y151.936 E2.08418
G1 X87.464 Y79.124 E2.28297
G1 X87.464 Y79.124 F9000
G1 X87.087 Y78.687
G1 F1200
G1 X154.313 Y78.687 E2.10782
G1 X154.313 Y112.3 E1.05391
G1 X154.313 Y152.313 E1.25458
G1 X87.087 Y152.313 E2.10782
G1 X87.087 Y78.747 E2.30661
G1 X86.71 Y78.31 F9000
;TYPE:External perimeter
G1 F1200
G1 X154.69 Y78.31 E2.13146
G1 X154.69 Y112.3 E1.06573
G1 X154.69 Y152.69 E1.2664
G1 X86.71 Y152.69 E2.13146
G1 X86.71 Y78.37 E2.33025
G1 E-3.5 F3600
;WIPE_START
G1 F7200
G1 X86.71 Y78.31 E-.0285
G1 X89.808 Y78.31 E-1.4715
;WIPE_END
G1 X153.815 Y79.949 F9000
G1 E5 F2400
;TYPE:Solid infill
;WIDTH:0.420776
G1 F1200
G1 X153.221 Y79.355 E.02639
G1 X152.687 Y79.355 E.01678
G1 X153.645 Y80.313 E.04257
G1 X153.645 Y80.848 E.01681
G1 X152.152 Y79.355 E.06634
G1 X151.618 Y79.355 E.01678
G1 X153.645 Y81.382 E.09007
G1 X153.645 Y81.917 E.01681
G1 X151.083 Y79.355 E.11384
G1 X150.549 Y79.355 E.01678
G1 X153.645 Y82.451 E.13756
G1 X153.645 Y82.985 E.01678
G1 X150.015 Y79.355 E.16129
G1 X149.48 Y79.355 E.01681
G1 X153.645 Y83.52 E.18506
G1 X153.645 Y84.054 E.01678
G1 X148.946 Y79.355 E.20879
G1 X148.412 Y79.355 E.01678
G1 X153.645 Y84.588 E.23252
G1 X153.645 Y85.123 E.01681
G1 X147.877 Y79.355 E.25629
G1 X147.343 Y79.355 E.01678
G1 X153.645 Y85.657 E.28002
G1 X153.645 Y86.191 E.01678
G1 X146.809 Y79.355 E.30374
G1 X146.274 Y79.355 E.01681
G1 X153.645 Y86.726 E.32752
G1 X153.645 Y87.26 E.01678
G1 X145.74 Y79.355 E.35124
G1 X145.205 Y79.355 E.01681
G1 X153.645 Y87.795 E.37501
G1 X153.645 Y88.329 E.01678
G1 X144.671 Y79.355 E.39874
G1 X144.137 Y79.355 E.01678
G1 X153.645 Y88.863 E.42247
G1 X153.645 Y89.398 E.01681
G1 X143.602 Y79.355 E.44624
G1 X143.068 Y79.355 E.01678
G1 X153.645 Y89.932 E.46997
G1 X153.645 Y90.466 E.01678
G1 X142.534 Y79.355 E.49369
G1 X141.999 Y79.355 E.01681
G1 X153.645 Y91.001 E.51747
G1 X153.645 Y91.535 E.01678
G1 X141.465 Y79.355 E.54119
G1 X140.93 Y79.355 E.01681
G1 X153.645 Y92.07 E.56497
G1 X153.645 Y92.604 E.01678
G1 X140.396 Y79.355 E.58869
G1 X139.862 Y79.355 E.01678
G1 X153.645 Y93.138 E.61242
G1 X153.645 Y93.673 E.01681
G1 X139.327 Y79.355 E.63619
G1 X138.793 Y79.355 E.01678
G1 X153.645 Y94.207 E.65992
G1 X153.645 Y94.741 E.01678
G1 X138.259 Y79.355 E.68365
G1 X137.724 Y79.355 E.01681
G1 X153.645 Y95.276 E.70742
G1 X153.645 Y95.81 E.01678
G1 X137.19 Y79.355 E.73114
G1 X136.656 Y79.355 E.01678
G1 X153.645 Y96.344 E.75487
G1 X153.645 Y96.879 E.01681
G1 X136.121 Y79.355 E.77864
G1 X135.587 Y79.355 E.01678
G1 X153.645 Y97.413 E.80237
G1 X153.645 Y97.948 E.01681
G1 X135.052 Y79.355 E.82614
G1 X134.518 Y79.355 E.01678
G1 X153.645 Y98.482 E.84987
G1 X153.645 Y99.016 E.01678
G1 X133.984 Y79.355 E.8736
G1 X133.449 Y79.355 E.01681
G1 X153.645 Y99.551 E.89737
G1 X153.645 Y100.085 E.01678
G1 X132.915 Y79.355 E.9211
G1 X132.381 Y79.355 E.01678
G1 X153.645 Y100.619 E.94482
G1 X153.645 Y101.154 E.01681
G1 X131.846 Y79.355 E.96859
G1 X131.312 Y79.355 E.01678
G1 X153.645 Y101.688 E.99232
G1 X153.645 Y102.223 E.01681
G1 X130.777 Y79.355 E1.01609
G1 X130.243 Y79.355 E.01678
G1 X153.645 Y102.757 E1.03982
G1 X153.645 Y103.291 E.01678
G1 X129.709 Y79.355 E1.06355
G1 X129.174 Y79.355 E.01681
G1 X153.645 Y103.826 E1.08732
G1 X153.645 Y104.36 E.01678
G1 X128.64 Y79.355 E1.11105
G1 X128.106 Y79.355 E.01678
G1 X153.645 Y104.894 E1.13477
G1 X153.645 Y105.429 E.01681
G1 X127.571 Y79.355 E1.15855
G1 X127.037 Y79.355 E.01678
G1 X153.645 Y105.963 E1.18227
G1 X153.645 Y106.498 E.01681
G1 X126.502 Y79.355 E1.20604
G1 X125.968 Y79.355 E.01678
G1 X153.645 Y107.032 E1.22977
G1 X153.645 Y107.566 E.01678
G1 X125.434 Y79.355 E1.2535
G1 X124.899 Y79.355 E.01681
G1 X153.645 Y108.101 E1.27727
G1 X153.645 Y108.635 E.01678
G1 X124.365 Y79.355 E1.301
G1 X123.831 Y79.355 E.01678
G1 X153.645 Y109.169 E1.32472
G1 X153.645 Y109.704 E.01681
G1 X123.296 Y79.355 E1.3485
G1 X122.762 Y79.355 E.01678
G1 X153.645 Y110.238 E1.37222
G1 X153.645 Y110.772 E.01678
G1 X122.228 Y79.355 E1.39595
G1 X121.693 Y79.355 E.01681
G1 X153.645 Y111.307 E1.41972
G1 X153.645 Y111.841 E.01678
G1 X121.159 Y79.355 E1.44345
G1 X120.624 Y79.355 E.01681
G1 X153.645 Y112.376 E1.46722
G1 X153.645 Y112.91 E.01678
G1 X120.09 Y79.355 E1.49095
G1 X119.556 Y79.355 E.01678
G1 X153.645 Y113.444 E1.51468
G1 X153.645 Y113.979 E.01681
G1 X119.021 Y79.355 E1.53845
G1 X118.487 Y79.355 E.01678
G1 X153.645 Y114.513 E1.56217
G1 X153.645 Y115.047 E.01678
G1 X117.953 Y79.355 E1.5859
G1 X117.418 Y79.355 E.01681
G1 X153.645 Y115.582 E1.60967
G1 X153.645 Y116.116 E.01678
G1 X116.884 Y79.355 E1.6334
G1 X116.349 Y79.355 E.01681
G1 X153.645 Y116.651 E1.65717
G1 X153.645 Y117.185 E.01678
G1 X115.815 Y79.355 E1.6809
G1 X115.281 Y79.355 E.01678
G1 X153.645 Y117.719 E1.70463
G1 X153.645 Y118.254 E.01681
G1 X114.746 Y79.355 E1.7284
G1 X114.212 Y79.355 E.01678
G1 X153.645 Y118.788 E1.75213
G1 X153.645 Y119.322 E.01678
G1 X113.678 Y79.355 E1.77585
G1 X113.143 Y79.355 E.01681
G1 X153.645 Y119.857 E1.79962
G1 X153.645 Y120.391 E.01678
G1 X112.609 Y79.355 E1.82335
G1 X112.075 Y79.355 E.01678
G1 X153.645 Y120.925 E1.84708
G1 X153.645 Y121.46 E.01681
G1 X111.54 Y79.355 E1.87085
G1 X111.006 Y79.355 E.01678
G1 X153.645 Y121.994 E1.89458
G1 X153.645 Y122.529 E.01681
G1 X110.471 Y79.355 E1.91835
G1 X109.937 Y79.355 E.01678
G1 X153.645 Y123.063 E1.94208
G1 X153.645 Y123.597 E.01678
G1 X109.403 Y79.355 E1.9658
G1 X108.868 Y79.355 E.01681
G1 X153.645 Y124.132 E1.98958
G1 X153.645 Y124.666 E.01678
G1 X108.334 Y79.355 E2.0133
G1 X107.8 Y79.355 E.01678
G1 X153.645 Y125.2 E2.03703
G1 X153.645 Y125.735 E.01681
G1 X107.265 Y79.355 E2.0608
G1 X106.731 Y79.355 E.01678
G1 X153.645 Y126.269 E2.08453
G1 X153.645 Y126.804 E.01681
G1 X106.196 Y79.355 E2.1083
G1 X105.662 Y79.355 E.01678
G1 X153.645 Y127.338 E2.13203
G1 X153.645 Y127.872 E.01678
G1 X105.128 Y79.355 E2.15575
G1 X104.593 Y79.355 E.01681
G1 X153.645 Y128.407 E2.17953
G1 X153.645 Y128.941 E.01678
G1 X104.059 Y79.355 E2.20325
G1 X103.525 Y79.355 E.01678
G1 X153.645 Y129.475 E2.22698
G1 X153.645 Y130.01 E.01681
G1 X102.99 Y79.355 E2.25075
G1 X102.456 Y79.355 E.01678
G1 X153.645 Y130.544 E2.27448
G1 X153.645 Y131.078 E.01678
G1 X101.922 Y79.355 E2.29821
G1 X101.387 Y79.355 E.01681
G1 X153.645 Y131.613 E2.32198
G1 X153.645 Y132.147 E.01678
G1 X100.853 Y79.355 E2.34571
G1 X100.318 Y79.355 E.01681
G1 X153.645 Y132.682 E2.36948
G1 X153.645 Y133.216 E.01678
G1 X99.784 Y79.355 E2.3932
G1 X99.25 Y79.355 E.01678
G1 X153.645 Y133.75 E2.41693
G1 X153.645 Y134.285 E.01681
G1 X98.715 Y79.355 E2.4407
G1 X98.181 Y79.355 E.01678
G1 X153.645 Y134.819 E2.46443
G1 X153.645 Y135.353 E.01678
G1 X97.647 Y79.355 E2.48816
G1 X97.112 Y79.355 E.01681
G1 X153.645 Y135.888 E2.51193
G1 X153.645 Y136.422 E.01678
G1 X96.578 Y79.355 E2.53566
G1 X96.043 Y79.355 E.01681
G1 X153.645 Y136.957 E2.55943
G1 X153.645 Y137.491 E.01678
G1 X95.509 Y79.355 E2.58316
G1 X94.975 Y79.355 E.01678
G1 X153.645 Y138.025 E2.60688
G1 X153.645 Y138.56 E.01681
G1 X94.44 Y79.355 E2.63065
G1 X93.906 Y79.355 E.01678
G1 X153.645 Y139.094 E2.65438
G1 X153.645 Y139.628 E.01678
G1 X93.372 Y79.355 E2.67811
G1 X92.837 Y79.355 E.01681
G1 X153.645 Y140.163 E2.70188
G1 X153.645 Y140.697 E.01678
G1 X92.303 Y79.355 E2.72561
G1 X91.769 Y79.355 E.01678
G1 X153.645 Y141.232 E2.74936
G1 X153.645 Y141.766 E.01678
G1 X91.234 Y79.355 E2.77311
G1 X90.7 Y79.355 E.01678
G1 X153.645 Y142.3 E2.79683
G1 X153.645 Y142.835 E.01681
G1 X90.165 Y79.355 E2.8206
G1 X89.631 Y79.355 E.01678
G1 X153.645 Y143.369 E2.84433
G1 X153.645 Y143.903 E.01678
G1 X89.097 Y79.355 E2.86806
G1 X88.562 Y79.355 E.01681
G1 X153.645 Y144.438 E2.89183
G1 X153.645 Y144.972 E.01678
G1 X88.028 Y79.355 E2.91556
G1 X87.755 Y79.355 E.00858
G1 X87.755 Y79.615 E.00817
G1 X153.645 Y145.506 E2.92771
G1 X153.645 Y146.041 E.01681
G1 X87.755 Y80.15 E2.92771
G1 X87.755 Y80.684 E.01678
G1 X153.645 Y146.575 E2.92771
G1 X153.645 Y147.11 E.01681
G1 X87.755 Y81.219 E2.92771
G1 X87.755 Y81.753 E.01678
G1 X153.645 Y147.644 E2.92771
G1 X153.645 Y148.178 E.01678
G1 X87.755 Y82.287 E2.92771
G1 X87.755 Y82.822 E.01681
G1 X153.645 Y148.713 E2.92771
G1 X153.645 Y149.247 E.01678
G1 X87.755 Y83.356 E2.92771
G1 X87.755 Y83.89 E.01678
G1 X153.645 Y149.781 E2.92771
G1 X153.645 Y150.316 E.01681
G1 X87.755 Y84.425 E2.92771
G1 X87.755 Y84.959 E.01678
G1 X153.645 Y150.85 E2.92771
G1 X153.645 Y151.385 E.01681
G1 X87.755 Y85.494 E2.92771
G1 X87.755 Y86.028 E.01678
G1 X153.372 Y151.645 E2.91556
G1 X152.838 Y151.645 E.01678
G1 X87.755 Y86.562 E2.89183
G1 X87.755 Y87.097 E.01681
G1 X152.303 Y151.645 E2.86806
G1 X151.769 Y151.645 E.01678
G1 X87.755 Y87.631 E2.84433
G1 X87.755 Y88.165 E.01678
G1 X151.235 Y151.645 E2.8206
G1 X150.7 Y151.645 E.01681
G1 X87.755 Y88.7 E2.79683
G1 X87.755 Y89.234 E.01678
G1 X150.166 Y151.645 E2.77311
G1 X149.632 Y151.645 E.01678
G1 X87.755 Y89.768 E2.74938
G1 X87.755 Y90.303 E.01681
G1 X149.097 Y151.645 E2.72561
G1 X148.563 Y151.645 E.01678
G1 X87.755 Y90.837 E2.70188
G1 X87.755 Y91.372 E.01681
G1 X148.028 Y151.645 E2.67811
G1 X147.494 Y151.645 E.01678
G1 X87.755 Y91.906 E2.65438
G1 X87.755 Y92.44 E.01678
G1 X146.96 Y151.645 E2.63065
G1 X146.425 Y151.645 E.01681
G1 X87.755 Y92.975 E2.60688
G1 X87.755 Y93.509 E.01678
G1 X145.891 Y151.645 E2.58316
G1 X145.357 Y151.645 E.01678
G1 X87.755 Y94.043 E2.55943
G1 X87.755 Y94.578 E.01681
G1 X144.822 Y151.645 E2.53566
G1 X144.288 Y151.645 E.01678
G1 X87.755 Y95.112 E2.51193
G1 X87.755 Y95.647 E.01681
G1 X143.753 Y151.645 E2.48816
G1 X143.219 Y151.645 E.01678
G1 X87.755 Y96.181 E2.46443
G1 X87.755 Y96.715 E.01678
G1 X142.685 Y151.645 E2.4407
G1 X142.15 Y151.645 E.01681
G1 X87.755 Y97.25 E2.41693
G1 X87.755 Y97.784 E.01678
G1 X141.616 Y151.645 E2.3932
G1 X141.082 Y151.645 E.01678
G1 X87.755 Y98.318 E2.36948
G1 X87.755 Y98.853 E.01681
G1 X140.547 Y151.645 E2.34571
G1 X140.013 Y151.645 E.01678
G1 X87.755 Y99.387 E2.32198
G1 X87.755 Y99.921 E.01678
G1 X139.479 Y151.645 E2.29825
G1 X138.944 Y151.645 E.01681
G1 X87.755 Y100.456 E2.27448
G1 X87.755 Y100.99 E.01678
G1 X138.41 Y151.645 E2.25075
G1 X137.875 Y151.645 E.01681
G1 X87.755 Y101.525 E2.22698
G1 X87.755 Y102.059 E.01678
G1 X137.341 Y151.645 E2.20325
G1 X136.807 Y151.645 E.01678
G1 X87.755 Y102.593 E2.17953
G1 X87.755 Y103.128 E.01681
G1 X136.272 Y151.645 E2.15575
G1 X135.738 Y151.645 E.01678
G1 X87.755 Y103.662 E2.13203
G1 X87.755 Y104.196 E.01678
G1 X135.204 Y151.645 E2.1083
G1 X134.669 Y151.645 E.01681
G1 X87.755 Y104.731 E2.08453
G1 X87.755 Y105.265 E.01678
G1 X134.135 Y151.645 E2.0608
G1 X133.6 Y151.645 E.01681
G1 X87.755 Y105.8 E2.03703
G1 X87.755 Y106.334 E.01678
G1 X133.066 Y151.645 E2.0133
G1 X132.532 Y151.645 E.01678
G1 X87.755 Y106.868 E1.98958
G1 X87.755 Y107.403 E.01681
G1 X131.997 Y151.645 E1.9658
G1 X131.463 Y151.645 E.01678
G1 X87.755 Y107.937 E1.94208
G1 X87.755 Y108.471 E.01678
G1 X130.929 Y151.645 E1.91835
G1 X130.394 Y151.645 E.01681
G1 X87.755 Y109.006 E1.89458
G1 X87.755 Y109.54 E.01678
G1 X129.86 Y151.645 E1.87085
G1 X129.325 Y151.645 E.01681
G1 X87.755 Y110.075 E1.84708
G1 X87.755 Y110.609 E.01678
G1 X128.791 Y151.645 E1.82335
G1 X128.257 Y151.645 E.01678
G1 X87.755 Y111.143 E1.79962
G1 X87.755 Y111.678 E.01681
G1 X127.722 Y151.645 E1.77585
G1 X127.188 Y151.645 E.01678
G1 X87.755 Y112.212 E1.75213
G1 X87.755 Y112.746 E.01678
G1 X126.654 Y151.645 E1.7284
G1 X126.119 Y151.645 E.01681
G1 X87.755 Y113.281 E1.70463
G1 X87.755 Y113.815 E.01678
G1 X125.585 Y151.645 E1.6809
G1 X125.051 Y151.645 E.01678
G1 X87.755 Y114.349 E1.65717
G1 X87.755 Y114.884 E.01681
G1 X124.516 Y151.645 E1.6334
G1 X123.982 Y151.645 E.01678
G1 X87.755 Y115.418 E1.60967
G1 X87.755 Y115.953 E.01681
G1 X123.447 Y151.645 E1.5859
G1 X122.913 Y151.645 E.01678
G1 X87.755 Y116.487 E1.56217
G1 X87.755 Y117.021 E.01678
G1 X122.379 Y151.645 E1.53845
G1 X121.844 Y151.645 E.01681
G1 X87.755 Y117.556 E1.51468
G1 X87.755 Y118.09 E.01678
G1 X121.31 Y151.645 E1.49095
G1 X120.776 Y151.645 E.01678
G1 X87.755 Y118.624 E1.46722
G1 X87.755 Y119.159 E.01681
G1 X120.241 Y151.645 E1.44345
G1 X119.707 Y151.645 E.01678
G1 X87.755 Y119.693 E1.41972
G1 X87.755 Y120.228 E.01681
G1 X119.172 Y151.645 E1.39595
G1 X118.638 Y151.645 E.01678
G1 X87.755 Y120.762 E1.37222
G1 X87.755 Y121.296 E.01678
G1 X118.104 Y151.645 E1.3485
G1 X117.569 Y151.645 E.01681
G1 X87.755 Y121.831 E1.32472
G1 X87.755 Y122.365 E.01678
G1 X117.035 Y151.645 E1.301
G1 X116.501 Y151.645 E.01678
G1 X87.755 Y122.899 E1.27727
G1 X87.755 Y123.434 E.01681
G1 X115.966 Y151.645 E1.2535
G1 X115.432 Y151.645 E.01678
G1 X87.755 Y123.968 E1.22977
G1 X87.755 Y124.502 E.01678
G1 X114.898 Y151.645 E1.20604
G1 X114.363 Y151.645 E.01681
G1 X87.755 Y125.037 E1.18227
G1 X87.755 Y125.571 E.01678
G1 X113.829 Y151.645 E1.15855
G1 X113.294 Y151.645 E.01681
G1 X87.755 Y126.106 E1.13477
G1 X87.755 Y126.64 E.01678
G1 X112.76 Y151.645 E1.11105
G1 X112.226 Y151.645 E.01678
G1 X87.755 Y127.174 E1.08732
G1 X87.755 Y127.709 E.01681
G1 X111.691 Y151.645 E1.06355
G1 X111.157 Y151.645 E.01678
G1 X87.755 Y128.243 E1.03982
G1 X87.755 Y128.777 E.01678
G1 X110.623 Y151.645 E1.01609
G1 X110.088 Y151.645 E.01681
G1 X87.755 Y129.312 E.99232
G1 X87.755 Y129.846 E.01678
G1 X109.554 Y151.645 E.96859
G1 X109.019 Y151.645 E.01681
G1 X87.755 Y130.381 E.94482
G1 X87.755 Y130.915 E.01678
G1 X108.485 Y151.645 E.9211
G1 X107.951 Y151.645 E.01678
G1 X87.755 Y131.449 E.89737
G1 X87.755 Y131.984 E.01681
G1 X107.416 Y151.645 E.8736
G1 X106.882 Y151.645 E.01678
G1 X87.755 Y132.518 E.84987
G1 X87.755 Y133.052 E.01678
G1 X106.348 Y151.645 E.82614
G1 X105.813 Y151.645 E.01681
G1 X87.755 Y133.587 E.80237
G1 X87.755 Y134.121 E.01678
G1 X105.279 Y151.645 E.77864
